X: 849
T: Gizli Sevdim
C: Tâhir Ağa
O: Turkey
F: http://compmusic.upf.edu/node/140
N: hicazkar--sarki--devrihindi--gizli_sevdim--tahir_aga
N: makam= hicazkar
N: form= sarki
N: usul= devrihindi = 7/4
M: 7/4
L: 1/16
K: C _1/4B _7/8e _7/8A ^f
Q: 1/4=132
%%MIDI tuningsystem comma53
g4 gf =ag gf g4  | d4 e2 gf ef g2 z2  | \
w:   |   | 
g4 fg a2 gf e3/2d/ c2  | 
w:   | 
d4 de dc/d/ cB c2 z2  | c4 g2 g=f fe f2 g2  | \
w:   |   | 
a2 g2 =f2 e4 ed c2  | 
w:   | 
d2 e2 ed de dc Bc dc  | Bc BA AG GA Bc de fg  | 
w:   |   | 
c4 g2 g=f fe f2 g2  | a2 g2 =f2 e4 ed c2  | \
w:   |   | 
d2 e2 ed de dc Bc dc  | 
w:   | 
Bc BA AG G3c Bd c2  | c4 c2 ed cB c4  | \
w:   |   | 
d2 e2 fg fe dc (3dcB c2  | 
w:   | 
c4 c2 c/B/c/d/ cB B4  | B4 Bc BA GA B2 z2  | \
w:   |   | 
G2 A2 Bc ed cB (3dcB c2  | 
w:   | 
d2 e2 fg _b=a gf (3agf g2  | =fg fg f=e fa gf _7/8ed c2  | 
w:   |   | 
Bc de dc BA AG G4  | z2 G2 A2 Bc ed cB (3dcB  | 
w:   |   | 
c2 d2 e2 fg _b=a gf (3agf  | g2 =fg fg f=e fa gf _7/8ed  | 
w:   |   | 
c2 Bc de dc BA AG G4 z2 g4 gf =ag gf  | \
w:   | 
g4 d4 e2 gf ef  | 
w:   | 
g2 z2 g4 fg a2 gf  | e3/2d/ c2 d4 de dc/d/ cB  | \
w:   |   | 
c2 z2 c4 g2 g=f fe  | 
w:   | 
=f2 g2 a2 g2 f2 e4  | ed c2 d2 e2 ed de dc  | \
w:   |   | 
Bc dc Bc BA AG GA Bc  | 
w:   | 
de fg c4 g2 g=f fe  | =f2 g2 a2 g2 f2 e4  | \
w:   |   | 
ed c2 d2 e2 ed de dc  | 
w:   | 
Bc dc Bc BA AG G3c  | Bd c2 c4 g2 g=f fe  | 
w:   |   | 
=f2 g2 a2 g2 f2 e4  | ed c2 d2 e2 ed de dc  | \
w:   |   | 
Bc dc Bc BA AG G4  | 
w:   | 
G2 z2 |
w:   | 


